svg/ember.svg

<svg xmlns="http://www.w3.org/2000/svg" viewBox="0 0 24 24"><path d="M22 14.22s-4.39 3.13-7.28 3.17c-2.88.05-2.59-1.83-2.59-1.83s10.58-3.62 7.7-10.77c-1.3-1.84-2.83-2.42-4.94-2.37-2.13.04-4.72 1.34-6.43 5.18-.82 1.84-1.05 3.58-1.22 4.9 0 0-1.92.38-2.92-.46s-1.55 0-1.55 0-1.74 2.16-.02 2.83c1.71.67 4.37.95 4.37.95.24 1.18.96 3.18 3.05 4.78 3.13 2.4 9.15-.2 9.15-.2m-7.69-8.07c.13-4.97 3.37-7.15 4.52-6.06 1.12 1.09.71 3.43-1.43 4.89-2.13 1.47-3.09 1.17-3.09 1.17"/></svg>

<?xml version="1.0" encoding="UTF-8"?><!DOCTYPE svg PUBLIC "-//W3C//DTD SVG 1.1//EN" "http://www.w3.org/Graphics/SVG/1.1/DTD/svg11.dtd"><svg xmlns="http://www.w3.org/2000/svg" xmlns:xlink="http://www.w3.org/1999/xlink" version="1.1" id="mdi-ember" width="24" height="24" viewBox="0 0 24 24"><path d="M22,14.22C22,14.22 17.61,17.35 14.72,17.39C11.84,17.44 12.13,15.56 12.13,15.56C12.13,15.56 22.71,11.94 19.83,4.79C18.53,2.95 17,2.37 14.89,2.42C12.76,2.46 10.17,3.76 8.46,7.6C7.64,9.44 7.41,11.18 7.24,12.5V12.5C7.24,12.5 5.32,12.88 4.32,12.04C3.32,11.2 2.77,12.04 2.77,12.04C2.77,12.04 1.03,14.2 2.75,14.87C4.46,15.54 7.12,15.82 7.12,15.82V15.82C7.36,17 8.08,19 10.17,20.6C13.3,23 19.32,20.4 19.32,20.4M11.63,12.33C11.76,7.36 15,5.18 16.15,6.27C17.27,7.36 16.86,9.7 14.72,11.16C12.59,12.63 11.63,12.33 11.63,12.33Z" /></svg>
